X: 36530
T: Set Américain
R: reel
M: 4/4
K: Bminor
|:F|B3c dcde|f3g fedc|B3c dcdB|G2G/G/GG2F2|
B3c dcde|f3g fede|f2e2d2c2|1 Bbfd B3:|2 B4c4||
|:dAFA dAFA|eAfA eABc|dAFA dAFA|dcdf edBc|
dAFA dAFA|gAfA eABc|dcdf edce|d/e/d ced3c:|

